public/icons/place_of_worship.svg

<?xml version="1.0" encoding="UTF-8" standalone="no"?>
<svg
   version="1.1"
   id="place-of-worship"
   width="15"
   height="15"
   viewBox="0 0 15 15"
   sodipodi:docname="place_of_worship.svg"
   inkscape:version="1.2.2 (b0a8486541, 2022-12-01)"
   xmlns:inkscape="http://www.inkscape.org/namespaces/inkscape"
   xmlns:sodipodi="http://sodipodi.sourceforge.net/DTD/sodipodi-0.dtd"
   xmlns="http://www.w3.org/2000/svg"
   xmlns:svg="http://www.w3.org/2000/svg">
  <defs
     id="defs152" />
  <sodipodi:namedview
     id="namedview150"
     pagecolor="#ffffff"
     bordercolor="#000000"
     borderopacity="0.25"
     inkscape:showpageshadow="2"
     inkscape:pageopacity="0.0"
     inkscape:pagecheckerboard="0"
     inkscape:deskcolor="#d1d1d1"
     showgrid="false"
     inkscape:zoom="24.54569"
     inkscape:cx="6.2536436"
     inkscape:cy="11.061005"
     inkscape:window-width="1920"
     inkscape:window-height="1055"
     inkscape:window-x="0"
     inkscape:window-y="0"
     inkscape:window-maximized="1"
     inkscape:current-layer="place-of-worship" />
  <path
     id="path9064"
     d="m 7.5,2.9333041 -2,1.9999988 v 2 h 4 v -2 z m -2,4.4999988 -1.5,1.5 h 7 l -1.5,-1.5 z M 2,9.3518222 c -0.5523,0 -1,0.4477 -1,0.9999998 V 14.87404 H 3 V 10.351822 C 3,9.7995222 2.5523,9.3518222 2,9.3518222 Z m 2,0.081481 V 14.87404 h 7 V 9.4333029 Z m 9,-0.081481 c -0.5523,0 -1,0.4477 -1,0.9999998 v 4.522218 h 2 V 10.351822 C 14,9.7995222 13.5523,9.3518222 13,9.3518222 Z"
     sodipodi:nodetypes="cccccccccccssccsscccccssccss"
     style="stroke-width:0.8;stroke-dasharray:none" />
  <g
     id="path422"
     style="stroke:none;fill-opacity:1">
    <path
       style="color:#000000;stroke-width:0.8;stroke-linecap:round;stroke-linejoin:round;-inkscape-stroke:none;stroke:none;fill-opacity:1"
       d="M 7.5062104,3.4576755 V 0.87564896"
       id="path4800" />
    <path
       style="color:#000000;stroke-linecap:round;stroke-linejoin:round;-inkscape-stroke:none;stroke:none;fill-opacity:1"
       d="M 7.5058594,0.4765625 A 0.40000001,0.40000001 0 0 0 7.1054687,0.875 V 3.4570313 A 0.40000001,0.40000001 0 0 0 7.5058594,3.8574219 0.40000001,0.40000001 0 0 0 7.90625,3.4570313 V 0.875 A 0.40000001,0.40000001 0 0 0 7.5058594,0.4765625 Z"
       id="path4802" />
  </g>
  <g
     id="path422-3"
     style="stroke:none;fill-opacity:1">
    <path
       style="color:#000000;stroke-width:0.8;stroke-linecap:round;stroke-linejoin:round;-inkscape-stroke:none;stroke:none;fill-opacity:1"
       d="M 6.6533544,1.9147957 H 8.3798337"
       id="path4794" />
    <path
       style="color:#000000;stroke-linecap:round;stroke-linejoin:round;-inkscape-stroke:none;stroke:none;fill-opacity:1"
       d="M 6.6542969,1.515625 A 0.40000001,0.40000001 0 0 0 6.2539062,1.9140625 0.40000001,0.40000001 0 0 0 6.6542969,2.3144531 H 8.3789063 A 0.40000001,0.40000001 0 0 0 8.7792969,1.9140625 0.40000001,0.40000001 0 0 0 8.3789063,1.515625 Z"
       id="path4796" />
  </g>
</svg>

<?xml version="1.0" encoding="UTF-8"?>
<svg id="place-of-worship" width="15" height="15" version="1.1" viewBox="0 0 15 15" xmlns="http://www.w3.org/2000/svg">
 <path id="path9064" d="m7.506 0.4766a0.4 0.4 0 0 0-0.401 0.3984v0.641h-0.451a0.4 0.4 0 0 0-0.4 0.398 0.4 0.4 0 0 0 0.4 0.4h0.451v1.014l-1.605 1.606v2h4v-2l-1.594-1.594v-1.026h0.473a0.4 0.4 0 0 0 0.4-0.4 0.4 0.4 0 0 0-0.4-0.398h-0.473v-0.641a0.4 0.4 0 0 0-0.4-0.3984zm-2.006 6.957-1.5 1.5h7l-1.5-1.5h-4zm-3.5 1.918c-0.552 0-1 0.448-1 0.998v4.52h2v-4.52c0-0.55-0.448-0.998-1-0.998zm11 0c-0.55 0-1 0.448-1 0.998v4.52h2v-4.52c0-0.55-0.45-0.998-1-0.998zm-9 0.082v5.436h7v-5.436h-7z"/>
</svg>
